X:1
T:Transcription 1
T:formatado 8 páginas
T:Slavonic Dance
T:Antonín Dvořák op. 72 nº2: Starodávny (1886) 
T:Piano a 4 mãos
C:Antonin Dvorak
%%score { ( 1 3 ) | ( 2 4 ) } { ( 5 7 ) | ( 6 8 ) }
L:1/8
Q:3/8=42
M:3/8
K:G
V:1 treble nm="Piano" snm="I"
V:3 treble 
V:2 treble 
V:4 treble 
V:5 bass3 nm="Piano" snm="II"
V:7 bass3 
V:6 bass 
V:8 bass 
V:1
"^Allegretto grazioso""_Allegretto grazioso" z/!<(! (!tenuto![gb]/!tenuto![gc']/!tenuto![gb]/!p!!tenuto![g^a]/!tenuto![gb]/)!<)! | %1
 ([=ac']2 [ab]) |!>(! [ea]>([eg][ef]/e/)!>)! | [ef]3 | %4
!p!!<(! z/ !tenuto![ef]/!tenuto![eg]/!tenuto![ef]/!tenuto![=e^e]/!tenuto![ef]/!<)! | %5
!>(! (a2!>)! g) |!p!!>(! [^dg]>(fe/d/)!>)! | e2- e/ z/ | %8
!<(! z/ (!tenuto!e/!tenuto!e/!tenuto!e/!tenuto!e/!tenuto!e/)!<)! | !>!e3 |!<(! !>!e3!<)! | %11
!f!!>(! B3!>)! |!<(! z/"_dim." (!tenuto!G/!tenuto!A/!tenuto!G/!tenuto!F/!<)!!tenuto!G/ | %13
!>(! B2 A)!>)! |!p!!>(! G2 F!>)! |!pp!"^ritard." E3 :: %16
!f!"^in tempo"!<(! z/!8va(! (!tenuto![be']/!tenuto![b=f']/!tenuto![be']/!tenuto![b^d']/!tenuto![be']/)!<)! | %17
!ff! [c'=f']2 =f | %18
!<(! z/ !tenuto![_c'=f']/!tenuto![c'_g']/!tenuto![c'f']/!tenuto![c'e']/!tenuto![c'f']/!<)! | %19
!ff! [_b_d'_g']2 _g | %20
!ff!!<(! z/ !tenuto![^c'=e'^f']/!tenuto![c'e'=g']/!tenuto![c'e'f']/!tenuto![c'e'=f']/!tenuto![c'e'^f']/!<)! | %21
 [e'g'=c'']2 [e'g'b'] | z/ ([a^d']>[d'g']f'/!8va)! |!>(! [Ge]3)!>)! | x3 | x3 | x3 | x3 | x3 | x3 | %30
 x3 |"^ritard." z/ .e/.[eg]/.[gb]/ !arpeggio!.[ege']/ z/ :| %32
!mf!"^in tempo" P[^gb].[eg]/.[gb]/.[eg]/ z/ |!<(! P[a^c'][fa]/[ac']/[fa]/ z/!<)! | %34
!p!!<(! ([B^d][Be][Bf]!<)! |!>(! [B^g]/>e/ B2)!>)! |!mf! P[^gb].[eg]/.[gb]/.[eg]/ z/ | %37
!pp! P[a=c'].[=fa]/.[ac']/.[fa]/ z/ |!p!!>(! (B[Bg][Bf]!>)! | [Be]3) | x3 | x3 | x3 | x3 | x3 | %45
 x3 | x3 | x3 || z3 |"^in tempo" z3 |!>(! z3!>)! | z3 |!<(! z3!<)! | z3 |!f! ([ce][ca][cg]) | %55
!>(! (3([B=f]/e/)[Bd]/ c2!>)! |!p!!<(! ([eg][da][=fb]) | [ec']/>d'/!<)! [c'e']2 | %58
!p!!>(! ([ac'=f'][gbe'][=fgd']) | ([egc']/>[=fa]/!>)! [egc']2) |!p!!<(! ([eg][da][=fb]) | %61
 [ec']/>d'/!<)! !>![fc'e']2 |!f!!<(!!8va(! [c'e'][c'a'][c'g']!<)! | %63
!>(! (3:2:4([b=f']/e'/)z/4.[bd']/4!8va)! [Ec]2!>)! |!p!!<(! ([GB][Ac][Bd])!<)! | %65
!f! [ce]/>[B^d]/ !>![ce]2 |!<(! ([ce][cf][dg])!<)! |!ff! (ga)g |"_dim."!>(! ([=ea][dg][cf]) | %69
 (3([da]/g/).f/!>)!!p! [dg]2 |!<(! ([GB][Ac][Bd])!<)! |!f! [ce]/>[B^d]/ !>![ce]2 | %72
!<(! ([ce][cf][dg])!<)! |!ff! ([gc']a[gb]) |!>(! ([=ea][dg][cf]) | (3([da]/g/).f/!>)!!p! [dg]2 | %76
!pp! x3 | x3 | x3 |!pp! .d/.c/ x2 | x3 | x3 |!f! z/ c'/g'/c'/e'/g/ | %83
"^tr"!>(! g(g/4e/4=f/4g/4)c!>)! || %84
!p!!<(! z/"^molto espressivo" (!tenuto![gb]/!tenuto![gc']/!tenuto![gb]/!tenuto![g^a]/!tenuto![gb]/)!<)! | %85
!>(! ([ac']2 [ab]) | ([ea]>!tenuto![eg]!tenuto![ef]/!tenuto!e/)!>)! |!p! [ef]3 | %88
 z/!<(! (!tenuto![ef]/!tenuto![eg]/!tenuto![ef]/!tenuto![e=f]/!tenuto![e^f]/)!<)! | %89
!>(! ([ea]2 [eg])!>)! |!p!!>(! ([^dg]>!tenuto!f!tenuto!e/!tenuto!d/)!>)! |!pp! (e2 e/) z/ | %92
 z!p! e' z | z/!f! e'/ (e'/4.g'/4)[I:staff +1]g/[I:staff -1] (g/4.e'/4)[I:staff +1]e/ | %94
[I:staff -1] z/!>(! e/.[ge']/ z/!>)! z | %95
"_dim." z/ .g'/ (g'/4.b'/4)[I:staff +1]b/[I:staff -1] (b/4.^d'/4)[I:staff +1]^d/4[I:staff -1] z/4 | %96
!p! z/ .e/.[ge']/ z/ z | %97
 z/ e'/"_dim." (e'/4a'/4)[I:staff +1]a/[I:staff -1] (a/4e'/4)[I:staff +1]e/ | %98
[I:staff -1] z/!pp! .B/.[^db]/ z/ z | %99
 z/"^ritard." .b/ (b/4.e'/4)[I:staff +1]g/[I:staff -1] (g/4.b/4)[I:staff +1]e/ | %100
!f!!<(![I:staff -1] z/"^in tempo"!8va(! (!tenuto![be']/!tenuto![b=f']/!tenuto![be']/!tenuto![b^d']/!tenuto![be']/)!<)! | %101
 [c'=f']2 =f | %102
!ff! z/ !tenuto![_c'=f']/!tenuto![c'_g']/!tenuto![c'f']/!tenuto![c'e']/!tenuto![c'f']/ | %103
 [_b_d'_g']2 _g | %104
 z/!<(! !tenuto![^c'e'f']/!tenuto![c'e'g']/!tenuto![c'e'f']/!tenuto![c'e'=f']/!tenuto![c'e'^f']/!<)! | %105
!fff! [c'e'g'c'']2 [be'g'b'] | z/!>(! ([a^d']>[bg'][af']/!8va)!!>)! |"_dim." [Ge]3) | %108
 z/!mp! .e/.[ge']/ z/ z | %109
 z/ .d'/ (d'/4.g'/4)[I:staff +1]c'/[I:staff -1] (c'/4._e'/4)[I:staff +1]g/ | %110
[I:staff -1] z/!p! .d/.[fd']/ z/ z | %111
 z/ .b/ (b/4.e'/4)[I:staff +1]e/[I:staff -1] (e/4.b/4)[I:staff +1]B/4[I:staff -1] z/4 | %112
 z/"_dim." .e/.[e_be']/ z/ z | %113
 z/!pp! .b/ (b/4.e'/4)[I:staff +1]e/[I:staff -1] (e/4.a/4)[I:staff +1]c/4[I:staff -1] z/4 | %114
 z/ .B/.[^db]/ z/ z | %115
 z/"^ritard." .e'/ (e'/4.g'/4)[I:staff +1]g/[I:staff -1] (g/4.e'/4)[I:staff +1]e/ | %116
!mp!"^in tempo"!<(![I:staff -1] P[^gb].[eg]/.[gb]/.[eg]/!<)! z/ | %117
!mf! P[a^c'].[fa]/.[ac']/.[eg]/ z/ |!<(! ([B^d][Be][Bf]!<)! |!f!!>(! [B^g]/>e/ B2)!>)! | %120
!p! x!8va(! x2!8va)! |!pp! x3 | x3 | x3 | [ee']3 |!f!!>(! [ee']3!>)! |!pp! [ee']3 | %127
 !fermata![ee']3 |] %128
V:2
 z/ (!tenuto!e/!tenuto!e/!tenuto!e/!tenuto!e/!tenuto!e/) | ^d2 d | B2 B | c3 | ^c2 c | B2 B | %6
 A2 [FA] | [EG]2 z | z/ !tenuto!B/!tenuto!c/!tenuto!B/!tenuto!^A/!tenuto!B/ | (=d2 ^c) | %10
 [G=c]>(!tenuto!G!tenuto!F/!tenuto!E/) | G2 F | %12
 z/ (!tenuto!E/!tenuto!E/!tenuto!E/!tenuto!^D/!tenuto!E/) | [CE]2 E | [B,^D]2 [A,D] | G,3 :: %16
 z/ (!tenuto!e/!tenuto!=f/!tenuto!e/!tenuto!^d/!tenuto!e/) | [Ac=f]2 [Ac] | %18
 z/ !tenuto!=f/!tenuto!_g/!tenuto!f/!tenuto!e/!tenuto!f/ | [_B_d_g]2 _G | %20
 z/ !tenuto!^f/!tenuto!=g/!tenuto!f/!tenuto!=f/!tenuto!^f/ | [eg=c']2 [egb] | %22
 z/"^dimin." ([A^d]>[dg]d/ | [Ge]3) | %24
!mf!"^dimin." E/[I:staff -1].[eg]/.[ge']/[I:staff +1] z/ .e/[I:staff -1].[ge']/ | %25
!>(![I:staff +1] E/[I:staff -1].A/.e/.a/ !arpeggio!.[eae']/[I:staff +1] z/!>)! | %26
 e/[I:staff -1].[ge']/.[e'g']/[I:staff +1] z/ .[=ceg]/[I:staff -1].[e'g']/ | %27
!p![I:staff +1] B/[I:staff -1].^d/.g/.b/!arpeggio!.[a^d']/[I:staff +1] z/ | %28
"^dimin." e/[I:staff -1].c'/.[c'e']/[I:staff +1] z/ .e/[I:staff -1].[c'e']/ | %29
[I:staff +1] E/[I:staff -1].e/.a/.c'/!arpeggio!.[eae']/[I:staff +1] z/ | %30
!pp! .B,/[I:staff -1].B/.[^dgb]/[I:staff +1] z/ .[B,A]/[I:staff -1].[dfb]/ | %31
[I:staff +1] [B,EG]2 .[EB]/ z/ :| z3 | z3 | AAA | ^G G2 | z3 | z3 | AAA | (A/^G/=G/F/E/) z/ | %40
!mf!!<(! (e/4^g/4b/4!8va(![I:staff -1]e'/4^g'/4b'/4g'/4b'/4[e'g']/)[I:staff +1] z/!<)! | %41
!<(! (f'/4a'/4^c''/4[I:staff -1]f'/4 a'/4^c''/4a'/4c''/4 [f'a']/)[I:staff +1] z/!<)! | %42
!p!!<(! .b/[I:staff -1](b/4b'/4)[I:staff +1] .b/[I:staff -1](b/4b'/4)[I:staff +1] .b/[I:staff -1](b/4b'/4)!<)! | %43
!>(![I:staff +1] (b/4e'/4^g'/4[I:staff -1]b/4 e'/4^g'/4e'/4g'/4 e'/)[I:staff +1] z/!>)! | %44
 (e'/4^g'/4b'/4"^dimin."[I:staff -1]e'/4 ^g'/4b'/4g'/4b'/4 [e'g']/)[I:staff +1] z/ | %45
!pp! (=f'/4a'/4c''/4[I:staff -1]=f'/4 a'/4c''/4a'/4c''/4!8va)! [=fa]/)[I:staff +1] z/ | %46
 .B/[I:staff -1](B/4b/4)[I:staff +1] .B/[I:staff -1](B/4b/4)[I:staff +1] .B/[I:staff -1](B/4b/4) | %47
"^rit."[I:staff +1] .B/[I:staff -1](B/4b/4)[I:staff +1] .e/[I:staff -1](e/4(e'/4 e'/))[I:staff +1] z/ || %48
!p!!<(! ([EG][DA][=FB])!<)! | [Ec]/>d/ [Ece]2 | ([Ac=f][GBe][=FGd]) |!p! ([EGc]/>[=FA]/ [Ec]2) | %52
 ([EG][DA][=FB]) | [Ec]/>d/ [Fce]2 | (GAG) | (3(A/G/).[=FG]/ [EG]2 | ([EG][DA][=FB]) | %57
 [Ec]/>d/ [ce]2 | ([Ac=f][GBe][=FGd]) | ([EGc]/>[=FA]/ [EGc]2) | ([EG][DA][=FB]) | %61
 [Ec]/>d/ !>![Fce]2 | [Gce][c=fa][ceg] | (3:2:4([B=f]/e/)z/4.[Bd]/4 [Gc]2 | z2 G | G !>!G2 | %66
 (EFG) | ([Gc][c_e][Bd]) | ([Ac][GB][FA]) | [GB] [GB]2 | z2 G | G !>!G2 | (EFG) | ([Gc][c_e][Bd]) | %74
 ([Ac][GB][FA]) | [GB] [GB]2 | %76
!8va(! e'/[I:staff -1]e'/[I:staff +1] d'/[I:staff -1]d'/[I:staff +1] =f'/[I:staff -1]=f'/ | %77
!pp!!<(![I:staff +1] .e'/[I:staff -1].e'/[I:staff +1] .c''/[I:staff -1].c''/[I:staff +1] .a'/[I:staff -1].a'/!<)! | %78
!>(![I:staff +1] .a'/[I:staff -1].a'/[I:staff +1] .g'/[I:staff -1].g'/[I:staff +1] .g'/[I:staff -1].g'/!>)! | %79
[I:staff +1] .e'/.c'/ .e'/[I:staff -1].e'/[I:staff +1] .g'/[I:staff -1].g'/ | %80
!<(![I:staff +1] .e'/[I:staff -1].e'/[I:staff +1] .d'/[I:staff -1].d'/[I:staff +1] .=f'/[I:staff -1].=f'/ | %81
[I:staff +1] .e'/[I:staff -1].e'/[I:staff +1] .c''/!<)![I:staff -1].c''/[I:staff +1] .a'/[I:staff -1].a'/ | %82
[I:staff +1] c''g''/c''/e''/ z/ |"^tr" g'(g'/4e'/4=f'/4g'/4)!8va)!c || %84
 z/ (!tenuto!e/!tenuto!e/!tenuto!e/!tenuto!e/!tenuto!e/) | ^d2 d | B2 B | c3 | ^c2 c | B2 B | %90
 A2 [FA] | [EG]2 z | z g z | x3 | z .e/ z/ z | x3 | z .e/ z/ z | x3 | z .B/ z/ z | x3 | %100
 z/ (!tenuto!e/!tenuto!=f/!tenuto!e/!tenuto!^d/!tenuto!e/) | [Ac=f]2 =F | %102
 z/ !tenuto!=f/!tenuto!_g/!tenuto!f/!tenuto!e/!tenuto!f/ | [_B_d_g]2 _G | %104
 z/ !tenuto!f/!tenuto!g/!tenuto!f/!tenuto!=f/!tenuto!^f/ | [eg]2 [eg] | z/ ([A^d]>[Bg][Af]/ | %107
 [Ge]3) | z .e/ z/ z | x3 | z .d/ z/ z | z z2 | z ._B/ z/ z | z3 | z .B/ z/ B | z3 | z3 | z3 | %118
 AAA | ^G G2 | (e/4^g/4b/4[I:staff -1]e/4 g/4b/4g/4b/4 [eg]/)[I:staff +1] z/ | %121
 (=f/4a/4c'/4!8va(![I:staff -1]=f'/4 a'/4c''/4a'/4c''/4 [f'a']/)!8va)![I:staff +1] z/ | %122
 .B/[I:staff -1](b/4b'/4)[I:staff +1] .B/[I:staff -1](b/4b'/4)[I:staff +1] .B/[I:staff -1](b/4b'/4) | %123
!<(![I:staff +1] .B/[I:staff -1](.b/4.b'/4)[I:staff +1] .E/[I:staff -1]e/4-[ee']/4-!mf! [ee']-!<)! | %124
[I:staff +1] A/^G/!<(!=G/F/=F/E/!<)! | E3 | E3 | E3 |] %128
V:3
 x3 | x3 | x3 | x3 | x3 | e3 | x3 | x3 | x3 | x3 | x3 | x3 | x3 | x3 | x3 | x3 :: x/!8va(! x5/2 | %17
 x3 | x3 | x3 | x3 | x3 | x3!8va)! | x3 | x3 | x3 | x3 | x3 | x3 | x3 | x3 | x3 :| x3 | x3 | x3 | %35
 x3 | x3 | x3 | x3 | x3 | x3 | x3 | x3 | x3 | x3 | x3 | x3 | x3 || x3 | x3 | x3 | x3 | x3 | x3 | %54
 x3 | x3 | x3 | x3 | x3 | x3 | x3 | x3 |!8va(! x3 | x!8va)! x2 | x3 | x3 | x3 | (c'2 b) | x3 | x3 | %70
 x3 | x3 | x3 | x3 | x3 | x3 | x3 | x3 | x3 | x3 | x3 | x3 | x3 | x3 || x3 | x3 | x3 | x3 | x3 | %89
 x3 | x3 | x3 | x3 | x3 | x3 | x3 | x3 | x3 | x3 | x3 | x/!8va(! x5/2 | x3 | x3 | x3 | x3 | x3 | %106
 x3!8va)! | x3 | x3 | x3 | x3 | x3 | x3 | x3 | x3 | x3 | x3 | x3 | x3 | x3 | x!8va(! x2!8va)! | %121
 x3 | x3 | x3 | x3 | x3 | x3 | x3 |] %128
V:4
 x3 | x3 | x3 | x3 | x3 | x3 | x3 | x3 | x3 | x3 | x3 | ^D3 | x3 | x3 | x3 | x3 :: x3 | x3 | x3 | %19
 x3 | x3 | x3 | x3 | x3 | x3 | x2 .^c/ z/ | x3 | x2 .[B^d]/ z/ | x3 | x2 .[Ac]/ z/ | x3 | x3 :| %32
 x3 | x3 | x3 | x3 | x3 | x3 | x3 | x3 | x3/4!8va(! x9/4 | x3 | x3 | x3 | x3 | x2!8va)! x | x3 | %47
 x2 .[EGB]/ z/ || x3 | x3 | x3 | x3 | x3 | x3 | x3 | x3 | x3 | x3 | x3 | x3 | x3 | x3 | x3 | x3 | %64
 x3 | x3 | x3 | x3 | x3 | x3 | x3 | x3 | x3 | x3 | x3 | x3 |!8va(! x3 | x3 | x3 | x3 | x3 | x3 | %82
 x3 | x2!8va)! x || x3 | x3 | x3 | x3 | x3 | x3 | x3 | x3 | x3 | x3 | x3 | x3 | x3 | x3 | x3 | x3 | %100
 x3 | x3 | x3 | x3 | x3 | x3 | x3 | x3 | x3 | x3 | x3 | x3 | x3 | x3 | x3 | x3 | x3 | x3 | x3 | %119
 x3 | x3 | x3/4!8va(! x7/4!8va)! x/ | x3 | x2 B/^A/ | x3 | x3 | x3 | x3 |] %128
V:5
!p! z/"_staccato" .E,/.[G,E]/ z/!<(! z/ .[G,E]/!<)! | z/ .A,/.^D/.F/.[DA]/ z/ | %2
!>(! z/ .B,/.[EG]/ z/ z/ .[B,E]/!>)! | z/ .A,/.C/.E/.[EF]/ z/ | %4
!p!!<(! z/ .[^A,^C]/.[CE]/ z/ z/ .[CE]/!<)! |[K:bass]!>(! z/ .E,/.G,/.B,/ .E/ z/!>)! | %6
!p!!>(! z/ .A,/.[B,^D]/ z/ z/ .B,/!>)! |!pp! z/ .E,/.G,/.C/.[G,E]/ z/ | %8
 z/!<(! .E,/.[G,E]/ z/ z/ .[G,E]/ | z/ .E,/.[G,E]/ z/ z/!<)! .[G,E]/ | %10
"_cresc." z/ E,/[G,=CE]/ z/ z/ [G,CE]/ |!f! z/ .A,/.[A,B,]/ z/ z/ .[A,B,]/ | %12
"_dim." z/ .E,/.[G,C]/ z/ .A,/.[G,C]/ |!>(! z/ .C,/.E,/.A,/ .[A,C]/ z/!>)! | %14
!p!!>(! z/ .B,,/.A,/ z/ z/ .B,,/!>)! |!pp! z/"^\n""^ritard." (.B,,/.C,/.B,,/.^A,,/.B,,/) :: %16
!f!"^in tempo"!<(! z/ .E,/.[E,^G,B,D]/ z/ z/ .[E,G,B,D]/!<)! | %17
!ff! z/ .[C,=F,]/.[F,A,]/.[F,A,C]/ z/ .[F,A,C]/ |!<(! z/ .=F,/.[F,_A,_C_D]/ z/ z/ .[F,A,CD]/!<)! | %19
!ff! z/ .[_D,_G,]/.[G,_B,]/.[G,B,_D]/ z/ .[G,B,D]/ |!ff!!<(! z/ .F,/.[^A,^CE]/ z/ z/ .[A,CE]/!<)! | %21
 z/ .[E,G,]/.[G,E]/.[EG]/ z/ .[G,E]/ | z/ .[A,^D]/.[DG]/ z/ z/ .[A,D]/ | %23
!>(! z/ .E,/.[E,G,]/.[G,E]/ z/ .[G,CE]/!>)! | %24
!mf! z/"^[espress.]" (.[E,G,B,]/.[E,G,C]/.[E,G,B,]/.[E,G,^A,]/.[E,G,B,]/) |!>(! (D2 ^C) | %26
 [G,B,E]>!>)!(B,A,/G,/) |!p! B,2 A, | %28
!>(! z/ (!tenuto![E,G,]/!tenuto![E,A,]/!tenuto![E,G,]/!tenuto![E,F,]/!tenuto![E,G,]/) | %29
 ([C,E,B,]2!>)! [C,E,A,]) |!pp! ([B,,^D,G,]2 [B,,D,F,] | E,3)!mf! :|[K:treble] x3 | x2 x/ z/ | %34
[K:bass]!p!!<(! (3z/ (A,/B,/) (3z/ (A,/B,/) (3z/ (A,/B,/)!<)! | %35
!>(! (3z/ (^G,/B,/) (3z/ (G,/B,/) (3z/ (G,/B,/)!>)! |[K:treble] x3 | x3 | %38
[K:bass]!p!!>(! z/ [A,B,][A,B,][A,B,]/!>)! | z/ [E,B,][E,B,][E,B,]/ | %40
[K:treble]!mf! P[^GB].[EG]/.[GB]/.[EG]/ z/ | P[A^c].[FA]/.[Ac]/.[FA]/ z/ | %42
!p!!<(! ([A,B,^D][A,B,E][A,B,F])!<)! |!>(! ([^G,B,^G]/>E/ [G,B,]2)!>)! | %44
"_dimin." P[^GB].[EG]/.[GB]/.[EG]/ z/ | P[A=c].[=FA]/.[Ac]/.[FA]/ z/ | (B,-[B,G][A,B,F]) | %47
"^rit."!>(! [B,E]3/2 z/ z!>)! ||[K:bass]!p!"^in tempo"!<(! ([G,B,]A,[=F,B,])!<)! | %49
 [E,G,C] [E,A,C]2 |!>(! (=F,,G,,B,,)!>)! |!p! (C,/>[=F,A,]/ [C,G,]2) |!<(! ([G,B,]A,[=F,B,])!<)! | %53
 [E,G,C] !>![F,CE]2 |!f!!<(! (!tenuto![G,CE]!tenuto![G,C=F]!tenuto![G,CE])!<)! | %55
!>(! [G,B,D]/ z/4 G,/4 [E,G,C]2!>)! |!p!!<(! ([G,B,]A,[=F,B,]) | [E,G,C]!<)! [E,A,C]2 | %58
!p!!>(! z/ (=F,,A,,B,,/) | (C,/>((((([=F,A,C]/!>)! [C,G,C]2)))))) |!p!!<(! ([G,B,]A,[=F,B,]) | %61
 [E,G,C]!<)! !>![D,F,C]2 |!f!!<(! (!tenuto![G,CE]!tenuto![G,C=F]!tenuto![G,CE])!<)! | %63
!>(! (3:2:4(([B,A]/G/)z/4.[G,=F]/4) [G,CE]2!>)! |!p!!<(! ([G,B,D][G,A,C][G,B,D])!<)! | %65
!f!!>(! [G,CE]([CE]/[D^F]/[CE]/[B,D]/)!>)! |!<(! [A,C]2 [G,B,D] | [G,CE]!<)!!ff! ([C_EA][D,B,D]) | %68
"_dim."!>(! [A,C] ([G,B,D][F,A,] | [G,B,D]3)!>)!!p! | ([G,B,D][G,A,C][G,B,D]) | %71
!f!!<(! [G,CE] ([CE]/[DF]/[CE]/[B,D]/)!<)! |!<(! [A,C]2 [G,B,D] | [G,CE]!<)!!ff! ([C_EA][B,D]) | %74
 [A,C] (([G,B,D][F,A,]) | [G,B,D]3)!p! |[K:treble]!pp! ([GB][DA][=FB]) |!<(! [Ec]/>d/!<)! [Ece]2 | %78
!p!!>(! ([Ac=f][GBe][=FGd])!>)! | ([EGc]/>[=FA]/ [Ec]2) |!pp! ([EG][DA][=FB]) | %81
 [Ec]/>d/ !>![EFce]2 |!f! [EGce][Aca][Gcg] |!>(!(3:2:4([AB=f]/[Ge]/) z/4 [=FGd]/4 [EGc]2!>)! || %84
[K:bass]!p! z/"_sempre staccato\n" .E,/.[G,E]/ z/!<(! z/ .[G,E]/ | z/ .A,/.^D/.F/!<)! .[DA]/ z/ | %86
!>(! z/ .B,/.[EG]/ z/ z/ .[B,E]/ | z/ .A,/.C/.E/!>)! .[EF]/ z/ | %88
!p!!<(! z/ .[^A,^C]/.[CE]/ z/ z/ .[CE]/!<)! |!>(! z/ .E,/.G,/.B,/ .E/ z/!>)! | %90
!p!!>(! z/ .A,/.[B,^D]/ z/ z/ .B,/!>)! |!pp! z/ .E,/.G,/.C/.[G,E]/ z/ | %92
[K:treble]!p!!<(! z/"^[express.]" (!tenuto![EBe]/!tenuto![Ece]/!tenuto![EBe]/!tenuto![E^Ae]/!tenuto![EBe]/)!<)! | %93
!f! [Ede]2 [E^ce] | [E=ce]>!>(!(!tenuto!G!tenuto!F/!tenuto!E/)!>)! |"_dim." B3 | %96
!p!!<(! z/ (!tenuto![EG]/!tenuto![EA]/!tenuto![EG]/!tenuto![^DF]/!tenuto![EG]/)!<)! | %97
!>(! ([CEB]2!>)! [CEA]) |!pp! [B,^DG]2 [A,DF] |"^ritard." [G,E]3 | %100
[K:bass]!f!!<(! z/"^in tempo" E,/[E,^G,B,D]/ z/ z/ [E,G,B,D]/!<)! | %101
 z/ [C,=F,]/[C,F,A,]/[F,A,C]/ z/ [F,A,C]/ |!ff! z/ .=F,/.[F,_A,_C_D]/ z/ z/ [F,A,CD]/ | %103
 z/ .[_D,_G,]/.[G,_B,]/.[=G,B,_D]/ z/ .[G,B,D]/ | z/!<(! .F,/.[^A,^CE]/ z/ z/ [A,CE]/!<)! | %105
!fff! z/ .[E,G,]/.[G,E]/.[EG]/ z/ .[G,E]/ |!>(! z/ .[A,^D]/.[B,D]/ z/ z/ .[B,D]/!>)! | %107
"_dim." z/ .E,/.G,/.[G,E]/ z/ .[G,E]/ | %108
[K:treble]!mp! z/!<(! (!tenuto![EB]/!tenuto![Ec]/!tenuto![EB]/!tenuto![E^A]/!tenuto![EB]/)!<)! | %109
!>(! (!arpeggio![_EGd]2 [EGc])!>)! |!p! ([CFB]>A[CG]/F/) |!>(! (A2 G)!>)! | %112
 z/ (!tenuto![_B,EG]/"_dim."!tenuto!A/!tenuto!G/!tenuto![^A,EF]/!tenuto!G/) | %113
!pp! (!arpeggio![B,EB]2 [CEA] | [B,^DG]2 [A,DF]) |"^ritard." [G,E]3 |!mp!"^in tempo" x2 x | %117
!mf! x3 |[K:bass]!<(! (3z/ (A,/B,/) (3z/ (A,/B,/) (3z/ (A,/B,/)!<)! | %119
!f!!>(! (3z/ (^G,/B,/) (3z/ (G,/B,/) (3z/ (G,/B,/)!>)! |!p! P[^GB].[EG]/.[GB]/.[EG]/ z/ | %121
!pp! P[Ac].[=FA]/.[Ac]/.[FA]/ z/ | ((B,[B,G])[A,B,F]) |[K:bass]!<(! (A,/^G,/=G,/F,/) [E,E]-!<)! | %124
 [E,E]!<(! E,2-!<)! |!f!!>(! [E,B,]3!>)! |!pp! [E,B,-]3 | [E,B,]3 |] %128
V:6
!ped! .E,,/ z/ z .E,/ z/!ped-up! |!ped! .F,,/.F,/ z .[F,A,]/ z/!ped-up! | %2
!ped! .G,,/ z/ z .G,/ z/!ped-up! |!ped! .A,,/.E,/ z .[A,C]/ z/!ped-up! | %4
!ped! .^A,,/ z/ z .^A,/ z/!ped-up! |!pp!!ped! .B,,/ z/ z .B,/ z/!ped-up! | %6
!ped! [B,,,B,,] z [B,,,B,,]!ped-up! |!ped! .C,,/.C,/ z .C,/ z/!ped-up! | %8
!ped! .[G,,,G,,] z .G,,,/.G,,/!ped-up! |!ped! [A,,,A,,] z .A,,,/.A,,/!ped-up! | %10
!ped! .[^A,,,^A,,] z .A,,,/.A,,/!ped-up! |!ped! .[B,,,B,,]/ z/ z .B,,,/.B,,/!ped-up! | %12
!ped! .[C,,C,]/ z/ z .[C,,C,]/ z/!ped-up! |!ped! [F,,,F,,]/ z/ z F,/ z/!ped-up! | %14
!ped! .B,,,/ z/ z .B,,,/ z/!ped-up! | E,,2 E,, ::!ped! [^G,,,^G,,] z .G,,/ z/!ped-up! | %17
!ped! .[A,,,A,,]/.A,,/ z .A,,/ z/!ped-up! |!ped! .[_D,,_D,] z .[D,,D,]/ z/!ped-up! | %19
!ped! .[_G,,,_G,,]/._B,,/ z/ z/ .B,,/ z/!ped-up! |!ped! .[^A,,,^A,,] z .A,,/ z/!ped-up! | %21
!ped! .B,,,/.B,,/ z .B,,/ z/!ped-up! |"^dimin"!ped! [B,,,B,,]/ z/ z .B,,/ z/!ped-up! | %23
!ped! .C,,/.C,/ z .C,/ z/!ped-up! |!ped! .[G,,,G,,]"^dimin." z G,,!ped-up! | %25
!ped! [A,,,A,,] z .A,,/.A,,,/!ped-up! |!ped! [^A,,,^A,,] z A,,!ped-up! | %27
!ped! [B,,,B,,] z .B,,/.B,,,/!ped-up! |"^dimin."!ped! [C,,C,] z C,!ped-up! | %29
!ped! [F,,,F,,] z F,,!ped-up! |!ped! B,,, z B,,,!ped-up! |"^ritard."!ped! E,,,E,, z!ped-up! :| %32
!ped!!<(! (E,/4^G,/4B,/4[I:staff -1]E/4 ^G/4B/4G/4B/4 [EG]/)[I:staff +1] z/!ped-up!!<)! | %33
!ped!!<(! (A,/4^C/4E/4[I:staff -1]F/4 A/4^c/4A/4c/4 [FA]/)[I:staff +1] z/!ped-up!!<)! | %34
 (B,,^C,^D, | E,B,,E,,) | %36
!mf!!ped! (E,/4^G,/4B,/4[I:staff -1]E/4 ^G/4B/4G/4B/4 [GB]/)[I:staff +1] z/!ped-up! | %37
!pp!!ped! (A,/4=C/4E/4[I:staff -1]=F/4 A/4c/4A/4c/4 [FA]/)[I:staff +1] z/!ped-up! | ((B,,^C,^D, | %39
 E,B,,E,,)) |!ped! .E, z .E,!ped-up! |!ped! .A,, z .A,,!ped-up! | [B,,,B,,][^C,,^C,][^D,,^D,] | %43
 [E,,E,] [E,,E,]2 |!ped! E, z E,!ped-up! |!pp!!ped! A,, z A,,!ped-up! | (B,,^C,[B,,^D,]) | %47
 (A,/^G,/=G,/F,/E,/) z/ || (E,=F,D,) | C, A,,2 | (=F,,,G,,,B,,,) | C,, z2 | (E,=F,D,) | %53
 C, [A,,D,]2 | G,, z G,, | G,, [C,,C,]2 | (E,=F,D,) | C, A,,2 | (=F,,,G,,,B,,,) | C,, z2 | %60
 (E,=F,D,) | C, [A,,,A,,]2 | [G,,,G,,] z G,, | G,/z/4G,,/4 (C,C,,) | G,, z G,, | %65
 C, (C,/D,/C,/A,,/) | [A,,,A,,]2 [B,,,B,,] | ([E,,,E,,][F,,,F,,][G,,,G,,]) | %68
 ([A,,,A,,][B,,,B,,][D,,D,]) | [G,,,G,,] [G,,,G,,]2 | G,, z G,, | C, (C,/D,/C,/B,,/) | %72
 [A,,,A,,]2 [B,,,B,,] | ([E,,,E,,][F,,,F,,][G,,,G,,]) |!>(! ([A,,,A,,][B,,,B,,][D,,D,]) | %75
 [G,,,G,,]!>)!!>(! [G,,,G,,]2!>)! | ([E,B,][=F,A,][D,F,]) | %77
!ped! [C,G,]!ped! !arpeggio![A,,E,C]2!ped-up! | (=F,,G,,B,,) | (C,/>[=F,A,]/ [C,G,]2) | %80
 ([E,B,][=F,A,][D,F,]) | [C,G,]!ped! !arpeggio![A,,D,F,C][D,,D,]!ped-up! | %82
!ped! [G,,G,][G,C=F][G,CE]!ped-up! |!ped! (3:2:4[G,D]/z/z/4[G,B,]/4 [C,G,C]2!ped-up! || %84
!ped! .E,,/ z/!ped-up! z .E,/ z/ |!ped! .F,,/.F,/ z .[F,A,]/ z/!ped-up! | %86
!ped! .G,,/ z/ z/ z/ .G,/ z/!ped-up! |!ped! .A,,/.E,/ z .[A,C]/ z/!ped-up! | %88
!ped! .^A,,/ z/ z .^A,/ z/!ped-up! |!ped! .B,,/ z/ z .B,/ z/!ped-up! | %90
!ped! [B,,,B,,] z B,,!ped-up! |!ped! .C,,/.C,/ z/ z/ .C,/ z/!ped-up! | %92
!ped! [G,,,G,,]/.E,/.G,/ z/ [G,,,G,,]!ped-up! |!ped! [A,,,A,,]/.E,/.G,/ z/ [A,,,A,,]!ped-up! | %94
!ped! [^A,,,^A,,]/.E,/.G,/ z/ [A,,,A,,]!ped-up! |!ped! [B,,,B,,]/G,/B,/ z/ [B,,A,]!ped-up! | %96
!ped! [C,,C,]/.E,/.G,/ z/ [C,,C,]!ped-up! |!ped! [F,,,F,,]/.E,/.A,/ z/ [F,,,F,,]!ped-up! | %98
!ped! B,,,/B,,/^D,[B,,,B,,]!ped-up! | z/ (B,,/C,/B,,/^A,,/B,,/) | %100
!ped! [^G,,,^G,,] z .G,,/ z/!ped-up! |!ped! .A,,,/.A,,/ z .A,,/ z/!ped-up! | %102
!ped! [_D,,_D,] z .[D,,D,]/ z/!ped-up! |!ped! .[_G,,,_G,,]/._B,,/ z .B,,/ z/!ped-up! | %104
!ped! [^A,,,^A,,] z .A,,/ z/!ped-up! |!ped! B,,,/.B,,/ z .B,,/ z/!ped-up! | %106
!ped! [B,,,B,,] z .B,,/ z/!ped-up! |!ped! .C,,/.C,/ z .C,/ z/!ped-up! | %108
!ped! [G,,,G,,]/.E,/.G,/ z/ .G,,!ped-up! |!ped! A,,/.G,/.C/ z/ A,,!ped-up! | %110
!ped! D,,/.D,/.F,/ z/ D,!ped-up! |!ped! E,,/.B,,/.E,/ z/ E,,!ped-up! | %112
!ped! C,,/.C,/.E,/ z/ C,,!ped-up! |!ped! [G,,,G,,]/.E,/.G,/ z/ [F,,,F,,]!ped-up! | %114
!ped! [B,,,B,,]/.^D,/.A,/ z/ B,,,!ped-up! | z/ (B,,/C,/B,,/^A,,/B,,/) | %116
!ped!!<(! (E,/4^G,/4B,/4[I:staff -1]E/4 ^G/4B/4G/4B/4 [EG]/)[I:staff +1] z/!ped-up!!<)! | %117
!ped!!<(! (A,/4^C/4E/4[I:staff -1]F/4 A/4^c/4A/4c/4 [FA]/)[I:staff +1] z/!ped-up!!<)! | %118
 (B,,^C,^D, | E,B,,E,,) |!ped! E, z E,!ped-up! |!ped! A,, z A,,!ped-up! | (B,,^C,[B,,^D,]) | %123
 [E,,E,]2 [C,,E,]- | [C,,E,] (([E,,B,,]/^A,,/=A,,/^G,,/) | [E,,^G,,]3) | [E,,^G,,]3 | %127
 !fermata![E,,^G,,]3 |] %128
V:7
 x3 | x3 | x3 | x3 | x3 |[K:bass] x3 | x3 | x3 | x3 | x3 | x3 | x3 | x3 | x3 | x3 | x3 :: x3 | x3 | %18
 x3 | x3 | x3 | x3 | x3 | x3 | x3 | [E,A,]3 | x3 | [^F,D]3 | x3 | x3 | x3 | x3 :|[K:treble] x3 | %33
 x3 |[K:bass] x3 | x3 |[K:treble] x3 | x3 |[K:bass] x3 | x3 |[K:treble] x3 | x3 | x3 | x3 | x3 | %45
 x3 | x3 | x3 ||[K:bass] x3 | x3 | x3 | x3 | x3 | x3 | x3 | x3 | x3 | x3 | x3 | x3 | x3 | x3 | x3 | %63
 x3 | x3 | x3 | x3 | x3 | x3 | x3 | x3 | x3 | x3 | x3 | x3 | x3 |[K:treble] x3 | x3 | x3 | x3 | %80
 x3 | x3 | x3 | x3 ||[K:bass] x3 | x3 | x3 | x3 | x3 | x3 | x3 | x3 |[K:treble] x3 | x3 | x3 | %95
 ([^DG]2 [DF]) | x3 | x3 | x3 | x3 |[K:bass] x3 | x3 | x3 | x3 | x3 | x3 | x3 | x3 |[K:treble] x3 | %109
 x3 | x3 | [B,E]3 | z3 | x3 | x3 | x3 | x3 | x3 |[K:bass] x3 | x3 | x3 | x3 | x3 | %123
[K:bass] [B,E]2 z | x3 | x3 | x3 | x3 |] %128
V:8
 x3 | x3 | x3 | x3 | x3 | x3 | x3 | x3 | x3 | x3 | x3 | x3 | x3 | x3 | x3 | x3 :: x3 | x3 | x3 | %19
 x3 | x3 | x3 | x3 | x3 | x3 | x3 | x3 | x3 | x3 | x3 | x3 | x3 :| x3 | x3 | x3 | x3 | x3 | x3 | %38
 x3 | x3 | x3 | x3 | x3 | x3 | x3 | x3 | x3 | ([E,,E,]2 E,,) || x3 | x3 | x3 | x3 | x3 | x3 | x3 | %55
 x3 | x3 | x3 | x3 | x3 | x3 | x3 | x3 | x3 | x3 | x3 | x3 | x3 | x3 | x3 | x3 | x3 | x3 | x3 | %74
 x3 | x3 | x3 | x3 | x3 | x3 | x3 | x3 | x3 | x3 || x3 | x3 | x3 | x3 | x3 | x3 | x3 | x3 | x3 | %93
 x3 | x3 | x3 | x3 | x3 | x3 | E,,2 x | z3 | x3 | x3 | x3 | x3 | x3 | x3 | x3 | x3 | x3 | x3 | x3 | %112
 x3 | x3 | x3 | E,,3 | x3 | x3 | x3 | x3 | x3 | x3 | x3 | x3 | x3 | x3 | x3 | x3 |] %128

